app/src/common/img/ic-add-user-inline.svg

<?xml version="1.0" encoding="UTF-8"?>
<svg width="20px" height="16px" viewBox="0 0 20 16" version="1.1" xmlns="http://www.w3.org/2000/svg" xmlns:xlink="http://www.w3.org/1999/xlink">
    <!-- Generator: Sketch 53.2 (72643) - https://sketchapp.com -->
    <title>123</title>
    <desc>Created with Sketch.</desc>
    <g id="123" stroke="none" stroke-width="1" fill="none" fill-rule="evenodd">
        <g id="ic-add-user-copy" transform="translate(0.000000, 1.000000)" fill="#1A9CB0">
            <path d="M4.8,1 L4.8,4.2 L8,4.2 L8,5.8 L4.8,5.8 L4.8,9 L3.2,9 L3.2,5.8 L0,5.8 L0,4.2 L3.2,4.2 L3.2,1 L4.8,1 Z M13.09,6.91 C12.173769,6.91000004 11.295079,6.54596024 10.6472996,5.89799329 C9.99952015,5.25002635 9.63573473,4.371231 9.636,3.455 C9.63573464,2.53859571 9.99965731,1.65964875 10.647653,1.01165303 C11.2956488,0.363657315 12.1745957,-0.000265355249 13.091,0 C14.007231,-3.83999232e-08 14.885921,0.364039756 15.5337004,1.01200671 C16.1814798,1.65997365 16.5452653,2.538769 16.545,3.455 C16.545,4.37105776 16.1810975,5.24959617 15.5333468,5.89734682 C14.8855962,6.54509747 14.0070578,6.909 13.091,6.909 L13.09,6.91 Z M6.182,12.09 C6.182,9.794 10.785,8.636 13.091,8.636 C15.397,8.636 20,9.794 20,12.091 L20,14.005 L6.181,14.005 L6.181,12.09 L6.182,12.09 Z" id="Shape"></path>
        </g>
    </g>
</svg>

<svg xmlns="http://www.w3.org/2000/svg" width="20" height="15"><path fill="#1A9CB0" fill-rule="evenodd" d="M4.8 1v3.2H8v1.6H4.8V9H3.2V5.8H0V4.2h3.2V1h1.6zm8.29 5.91a3.454 3.454 0 0 1-3.454-3.455A3.454 3.454 0 0 1 13.091 0a3.454 3.454 0 0 1 3.454 3.455 3.454 3.454 0 0 1-3.454 3.454zm-6.908 5.18c0-2.296 4.603-3.454 6.909-3.454S20 9.794 20 12.091v1.914H6.181V12.09z"/></svg>
